X: 23644
T: Limerick Lasses, The
R: reel
M: 4/4
K: Dmajor
|:dBAF DEFD|G3A BEE2|dBAF DEFD|GBAG FDD2:|
|:dcde f3d|efed cAA2|B/c/d ef g2ag|faeg fddA:|
|:BdAd BdAd|B/c/d ef gfed|BdAd B/c/d ag|faeg fdd2:|

